!!!COM: Anonymous
!!!OTL@@POL: O Matko miłościwa
!!!TXO: Polish
!!!ODT: 
!!!GTL: Hymnbook L 1642(a)
!!!ARL: Biblioteka Diecezjalna w Sandomierzu 
!!!voices:	4
**kern	**text	**kern	**text	**kern	**text	**kern	**text
*staff4	*staff4	*staff3	*staff3	*staff2	*staff2	*staff1	*staff1
*I"Basso	*	*I"Canto III	*	*I"Canto II	*	*I"Canto I	*
=1-	=1-	=1-	=1-	=1-	=1-	=1-	=1-
*clefF4	*	*clefG2	*	*clefG2	*	*clefG2	*
*k[]	*	*k[]	*	*k[]	*	*k[]	*
*met(c|)	*	*met(c|)	*	*met(c|)	*	*met(c|)	*
*M2/2	*	*M2/2	*	*M2/2	*	*M2/2	*
1D	O	1d	O	1d	O	1d	O
=2	=2	=2	=2	=2	=2	=2	=2
1AA	Mat-	1f	Mat-	1f	Mat-	1a	Mat-
=3	=3	=3	=3	=3	=3	=3	=3
2.AA/	-ko	1f	-ko	1f	-ko	1a	-ko
4BB/	.	.	.	.	.	.	.
=4	=4	=4	=4	=4	=4	=4	=4
2C/	mi-	2e/	mi-	2e/	mi-	2g/	mi-
2D\	-ło-	2d/	-ło-	2d/	-ło-	2f/	-ło-
=5	=5	=5	=5	=5	=5	=5	=5
1AA	-ści-	1c#	-ści-	1c#i	-ści-	1e	-ści-
=6	=6	=6	=6	=6	=6	=6	=6
1D	-wa	1d	-wa	1d	-wa	1d	-wa
=7	=7	=7	=7	=7	=7	=7	=7
1D	Dzie-	1f	Dzie-	1a	Dzie-	1a	Dzie-
=8	=8	=8	=8	=8	=8	=8	=8
2.C/	-wi-	1e	-wi-	1a	-wi-	1cc	-wi-
4D\	.	.	.	.	.	.	.
=9	=9	=9	=9	=9	=9	=9	=9
2E\	-co	2g#i/	-co	2g#/	-co	2b\	-co
2F\	wy-	[2a/	wy-	[2a/	wy-	[2a/	wy-
=10	=10	=10	=10	=10	=10	=10	=10
1E	-bra-	2a/]	.	2a/]	.	2a/]	.
.	.	2g#i/	-bra-	2b\	-bra-	2g#i/	-bra-
=11	=11	=11	=11	=11	=11	=11	=11
1AA	-na	1a	-na	1cc#	-na	1a	-na
=12	=12	=12	=12	=12	=12	=12	=12
1D	Kr&oacute;-	1f	Kr&oacute;-	1a	Kr&oacute;-	1f	Kr&oacute;-
=13	=13	=13	=13	=13	=13	=13	=13
2D\	-lo-	2f/	-lo-	2a/	-lo-	2f/	-lo-
[2C/	-wa	[2e/	-wa	[2cc\	-wa	[2g/	-wa
=14	=14	=14	=14	=14	=14	=14	=14
2C/]	.	2e/]	.	4cc\]	.	2g/]	.
.	.	.	.	4cc\	nie-	.	.
2D\	nie-	2d/	nie-	2dd\	.	2f/	nie-
=15	=15	=15	=15	=15	=15	=15	=15
1AA	-bie-	1c#	-bie-	1cc#	-bie-	1e	-bie-
=16	=16	=16	=16	=16	=16	=16	=16
1D	-ska	1d	-ska	1dd	-ska	1d	-ska
=17	=17	=17	=17	=17	=17	=17	=17
=	=	=	=	=	=	=	=
2D\	Ma-	2f/	Ma-	2a/	Ma-	2dd\	Ma-
[2D\	-ry-	[2f/	-ry-	[2a/	-ry-	[2dd\	-ry-
=18	=18	=18	=18	=18	=18	=18	=18
2D\]	.	2f/]	.	4a/]	.	2dd\]	.
.	.	.	.	8b\L	.	.	.
.	.	.	.	8cc#\J	.	.	.
2D\	-ja	2f/	-ja	2dd\	-ja	2a/	-ja
=19	=19	=19	=19	=19	=19	=19	=19
1F	m&oacute;dl	1f	m&oacute;dl	1cc	m&oacute;dl	1a	m&oacute;dl
=20	=20	=20	=20	=20	=20	=20	=20
2F\	się	2f/	się	2dd\	się	2a/	się
[2C/	dziś	[2e/	dziś	[2cc\	dziś	[2g/	dziś
=21	=21	=21	=21	=21	=21	=21	=21
2C/]	.	2e/]	.	2cc\]	.	2g/]	.
2D\	za	2d/	za	2b-\	za	2f/	za
=22	=22	=22	=22	=22	=22	=22	=22
1AA	na-	1c#	na-	1a	na-	1e	na-
=23	=23	=23	=23	=23	=23	=23	=23
[1D	-mi.	[1d	-mi.	[1f#i	-mi.	[1d	-mi.
=24	=24	=24	=24	=24	=24	=24	=24
1D]	.	1d]	.	1f#]	.	1d]	.
==:|!	==:|!	==:|!	==:|!	==:|!	==:|!	==:|!	==:|!
*-	*-	*-	*-	*-	*-	*-	*-
!!!GTL: Hymnbook L 1642(a)
!!!EFL: 5/34
!!!YEM: Creative Commons CC/BY/NC/SA 4.0
!!!ENC: Marcin Konik
!!!END: 2015-01-06 
!!!EED: Marcin Konik
!!!EEV: 
!!!ONB: Translated from MusicXML and edited by Marcin Konik
!!!CharacterEncoding: utf-8
!!!RDF**kern: i=editorial accidental
!!muse2ps: z14jc180F
!!title: @{OTL}, @{GTL}: @{pag}, ed. @{ENC}
